img/footer-fb.svg

<svg width="25" height="25" viewBox="0 0 25 25" fill="none" xmlns="http://www.w3.org/2000/svg">
<g clip-path="url(#clip0_96182_11)">
<path d="M12.5 0C5.59815 0 0 5.59815 0 12.5C0 19.4018 5.59815 25 12.5 25C19.4018 25 25 19.4018 25 12.5C25 5.59815 19.4018 0 12.5 0ZM17.2546 6.36502H15.5163C14.1615 6.36502 13.9059 7.00408 13.9059 7.94989V10.0204H17.1268V13.2924H13.9059V21.6769H10.5572V13.2924H7.74539V10.046H10.5572V7.64314C10.5572 4.85685 12.2699 3.3231 14.7495 3.3231H17.2801L17.2546 6.36502Z" fill="#999999"/>
</g>
<defs>
<clipPath id="clip0_96182_11">
<rect width="25" height="25" fill="white"/>
</clipPath>
</defs>
</svg>

<svg width="25" height="25" fill="none" xmlns="http://www.w3.org/2000/svg"><g clip-path="url(#a)"><path d="M12.5 0C5.598 0 0 5.598 0 12.5S5.598 25 12.5 25 25 19.402 25 12.5 19.402 0 12.5 0Zm4.755 6.365h-1.739c-1.354 0-1.61.64-1.61 1.585v2.07h3.22v3.272h-3.22v8.385h-3.349v-8.385H7.745v-3.246h2.812V7.643c0-2.786 1.713-4.32 4.192-4.32h2.531l-.025 3.042Z" fill="#999"/></g><defs><clipPath id="a"><path fill="#fff" d="M0 0h25v25H0z"/></clipPath></defs></svg>
